X: 30803
T: COTILLION No. 2. BALTIMORE SETT tune 3
%R: reel, march
B: Elias Howe "The Musician's Companion" Part 3 1844 p.80 #3
S: http://imslp.org/wiki/The_Musician's_Companion_(Howe,_Elias)
Z: 2015 John Chambers <jc:trillian.mit.edu>
M: 2/4
L: 1/16
K: Bb
% - - - - - - - - - - - - - - - - - - - - - - - - - - - - -
F2 |\
B2B2 F2GA | B2B2 F2GA | BABc dcBd | c2f2 fFGA |\
B2B2 F2GA | B2B2 F2GA | BABc dcBd | c2f2f2 H|]
F2f2 f2ff | fedc B2dB | F2F2 F2GA | BABc dcBd |\
c2 f4 fg | fedc A2b2 | B2b2 fedc | B4 "^D.C."g4 |]
% - - - - - - - - - - Dance description - - - - - - - - - -
%%begintext align
%% First lady join with the second couple,
%% forward and back 3,
%% balance 4,
%% partners chassa across 4,
%% back to back 4,
%% promenade 4.
%% The others the same.
%%endtext
% - - - - - - - - - - - - - - - - - - - - - - - - - - - - -
%%sep 1 1 300
